X:1
T:Duncan Gray
M:4/4
L:1/8
K:G
 DG FG AB F2| G2 A3/2 c/2 BG G2| DG FG AB F2| G2 A3/2 c/2 BG G2| B d/2d/2 d- c/2B/2 cc c2|\
 B c/2B/2 AG FE D2| D/2D/2 GF GA B F2| G/2 G3/2 A3/2 c/2 BG G2|:|
